X: 988
T: Alle Hugel
R: waltz
M: 3/4
K: Gmajor
D2|D3 G G2|G2 D2 G2|A2 B2 c2|d4 dc|B3 A G2|AB c3 B|A3 D D2|D4 Bc|
d2 B2 d2|cB A2 c2|BA G2 A2|D4 D2|G2 A2 B2|cB A2 G2|F3 E F2|G4z2|

